svg/fluentui-system-icons/ic_fluent_square_hint_sparkles_24_regular.svg

<svg width="24" height="24" viewBox="0 0 24 24" fill="none" xmlns="http://www.w3.org/2000/svg">
<path d="M16.0883 6.41228C16.016 6.31886 15.9377 6.2298 15.8539 6.14569C15.5417 5.83255 15.1606 5.59666 14.741 5.45683L13.3632 5.00939C13.257 4.97196 13.165 4.90253 13.1 4.81068C13.0349 4.71883 13 4.60908 13 4.49656C13 4.38404 13.0349 4.27429 13.1 4.18244C13.165 4.09058 13.257 4.02116 13.3632 3.98372L14.741 3.53628C15.1547 3.39352 15.5299 3.15705 15.837 2.84537C16.1357 2.54224 16.3623 2.17595 16.5 1.77372L16.5114 1.73963L16.9592 0.362894C16.9967 0.256782 17.0662 0.164895 17.1581 0.0998993C17.25 0.0349035 17.3598 0 17.4724 0C17.5851 0 17.6949 0.0349035 17.7868 0.0998993C17.8787 0.164895 17.9482 0.256782 17.9857 0.362894L18.4335 1.73963C18.5727 2.15819 18.8077 2.53853 19.1198 2.85041C19.432 3.1623 19.8126 3.39715 20.2315 3.53628L21.6093 3.98372L21.6368 3.99061C21.743 4.02804 21.835 4.09747 21.9 4.18932C21.9651 4.28117 22 4.39092 22 4.50344C22 4.61596 21.9651 4.72571 21.9 4.81756C21.835 4.90942 21.743 4.97884 21.6368 5.01628L20.259 5.46372C19.8402 5.60285 19.4595 5.8377 19.1474 6.14959C18.8353 6.46147 18.6003 6.84181 18.461 7.26037L18.0132 8.63711C18.0092 8.64855 18.0048 8.65983 18 8.67093C17.9605 8.76273 17.8964 8.84212 17.8144 8.9001C17.7224 8.9651 17.6126 9 17.5 9C17.3874 9 17.2776 8.9651 17.1856 8.9001C17.0937 8.8351 17.0242 8.74322 16.9868 8.63711L16.539 7.26037C16.4378 6.95331 16.2851 6.66664 16.0883 6.41228ZM23.7829 10.2132L23.0175 9.9646C22.7848 9.8873 22.5733 9.75683 22.3999 9.58356C22.2265 9.41029 22.0959 9.199 22.0186 8.96646L21.7698 8.20161C21.749 8.14266 21.7104 8.09161 21.6593 8.0555C21.6083 8.01939 21.5473 8 21.4847 8C21.4221 8 21.3611 8.01939 21.31 8.0555C21.259 8.09161 21.2204 8.14266 21.1996 8.20161L20.9508 8.96646C20.875 9.19736 20.7467 9.40761 20.5761 9.58076C20.4055 9.75392 20.1971 9.88529 19.9672 9.9646L19.2018 10.2132C19.1428 10.234 19.0917 10.2725 19.0555 10.3236C19.0194 10.3746 19 10.4356 19 10.4981C19 10.5606 19.0194 10.6216 19.0555 10.6726C19.0917 10.7236 19.1428 10.7622 19.2018 10.783L19.9672 11.0316C20.2003 11.1093 20.412 11.2403 20.5855 11.4143C20.7589 11.5882 20.8893 11.8003 20.9661 12.0335L21.2149 12.7984C21.2357 12.8573 21.2743 12.9084 21.3254 12.9445C21.3764 12.9806 21.4374 13 21.5 13C21.5626 13 21.6236 12.9806 21.6746 12.9445C21.7257 12.9084 21.7643 12.8573 21.7851 12.7984L22.0339 12.0335C22.1113 11.801 22.2418 11.5897 22.4152 11.4164C22.5886 11.2432 22.8001 11.1127 23.0328 11.0354L23.7982 10.7868C23.8572 10.766 23.9083 10.7275 23.9445 10.6764C23.9806 10.6254 24 10.5644 24 10.5019C24 10.4394 23.9806 10.3784 23.9445 10.3274C23.9083 10.2764 23.8572 10.2378 23.7982 10.217L23.7829 10.2132ZM12.28 3.56903C12.4741 3.30783 12.741 3.10986 13.0473 3H10.75C10.3358 3 10 3.33579 10 3.75C10 4.16421 10.3358 4.5 10.75 4.5H12.0004C12.0002 4.48969 12 4.47936 12 4.46903C12.0008 4.14772 12.0984 3.83411 12.28 3.56903ZM3.75 10C4.16421 10 4.5 10.3358 4.5 10.75V13.25C4.5 13.6642 4.16421 14 3.75 14C3.33579 14 3 13.6642 3 13.25V10.75C3 10.3358 3.33579 10 3.75 10ZM14 20.25C14 20.6642 13.6642 21 13.25 21H10.75C10.3358 21 10 20.6642 10 20.25C10 19.8358 10.3358 19.5 10.75 19.5H13.25C13.6642 19.5 14 19.8358 14 20.25ZM6.25 3C6.66421 3 7 3.33579 7 3.75C7 4.16421 6.66421 4.5 6.25 4.5H5.75C5.05964 4.5 4.5 5.05964 4.5 5.75V6.25C4.5 6.66421 4.16421 7 3.75 7C3.33579 7 3 6.66421 3 6.25V5.75C3 4.23122 4.23122 3 5.75 3H6.25ZM6.25 21C6.66421 21 7 20.6642 7 20.25C7 19.8358 6.66421 19.5 6.25 19.5H5.75C5.05964 19.5 4.5 18.9404 4.5 18.25V17.75C4.5 17.3358 4.16421 17 3.75 17C3.33579 17 3 17.3358 3 17.75V18.25C3 19.7688 4.23122 21 5.75 21H6.25ZM17 20.25C17 20.6642 17.3358 21 17.75 21H18.25C19.7688 21 21 19.7688 21 18.25V17.75C21 17.3358 20.6642 17 20.25 17C19.8358 17 19.5 17.3358 19.5 17.75V18.25C19.5 18.9404 18.9404 19.5 18.25 19.5H17.75C17.3358 19.5 17 19.8358 17 20.25Z" fill="#212121"/>
</svg>

<svg xmlns="http://www.w3.org/2000/svg" width="24" height="24"><path d="M16.088 6.412a2.844 2.844 0 0 0-1.347-.955l-1.378-.448a.544.544 0 0 1 0-1.025l1.378-.448A2.839 2.839 0 0 0 16.5 1.774l.011-.034.448-1.377a.544.544 0 0 1 1.027 0l.447 1.377a2.835 2.835 0 0 0 1.799 1.796l1.377.448.028.007a.544.544 0 0 1 0 1.025l-1.378.448a2.839 2.839 0 0 0-1.798 1.796l-.448 1.377a.544.544 0 0 1-1.026 0l-.448-1.377a2.837 2.837 0 0 0-.45-.848Zm7.695 3.801-.766-.248a1.577 1.577 0 0 1-.998-.999l-.25-.764a.302.302 0 0 0-.57 0l-.248.764a1.576 1.576 0 0 1-.984.999l-.765.248a.302.302 0 0 0 0 .57l.765.249a1.578 1.578 0 0 1 1 1.002l.248.764a.302.302 0 0 0 .57 0l.249-.764a1.576 1.576 0 0 1 .999-.999l.765-.248a.302.302 0 0 0 0-.57l-.015-.004ZM12.28 3.57a1.65 1.65 0 0 1 .767-.57H10.75a.75.75 0 0 0 0 1.5H12v-.031a1.6 1.6 0 0 1 .28-.9ZM3.75 10a.75.75 0 0 1 .75.75v2.5a.75.75 0 0 1-1.5 0v-2.5a.75.75 0 0 1 .75-.75ZM14 20.25a.75.75 0 0 1-.75.75h-2.5a.75.75 0 0 1 0-1.5h2.5a.75.75 0 0 1 .75.75ZM6.25 3a.75.75 0 0 1 0 1.5h-.5c-.69 0-1.25.56-1.25 1.25v.5a.75.75 0 0 1-1.5 0v-.5A2.75 2.75 0 0 1 5.75 3h.5Zm0 18a.75.75 0 0 0 0-1.5h-.5c-.69 0-1.25-.56-1.25-1.25v-.5a.75.75 0 0 0-1.5 0v.5A2.75 2.75 0 0 0 5.75 21h.5ZM17 20.25c0 .414.336.75.75.75h.5A2.75 2.75 0 0 0 21 18.25v-.5a.75.75 0 0 0-1.5 0v.5c0 .69-.56 1.25-1.25 1.25h-.5a.75.75 0 0 0-.75.75Z"/></svg>
